X:1
T:Title
%%score { 1 | 2 }
L:1/8
Q:1/4=100
M:4/4
K:G
V:1 treble nm="Grand Piano"
V:2 treble 
V:1
 B>A G>A B>G d>B | [EA]2 E2 E4 | D>E F>G A>B c>A | [DG]2 A2 B4 | %4
w: James~M.~Black * * * * * * *||||
 [DB]>[CA] [B,G]>[CA] [DB]>[B,DG] [B,Dd]>[DB] | [CEA]2 [G,CE]2 [Ge]4 | [Bd]>[Ac] B>c d>e d>c | %7
w: |||
 B2 [CFA]2 [B,DG]4 | d>^c d>e d2 B2 | [Bd]>[Ac] [Ac]>[^GB] [Ac]4 | %10
w: |||
 [Ac]>[^GB] [Ac]>[Bd] [Ac]2 [Ece]2 | [Ece]>[DBd] [DBd]>[^C_B^c] [D=Bd]4 | B>_B =B>c d2 G2 | %13
w: |||
 [FA]>B c>d e4 | B>B [EBd]>[EBd] [EBd]>[EBd] [EAc]>[EAc] | [DGB]2 [CFA]2 [B,DG]4 |] %16
w: |||
V:2
 [G,DG]>[G,CD] [G,B,D]>[G,CD] [G,DG]>[G,B,] [G,B,G]>[G,DG] | [C,C]2 [C,G,C]2 [C,G,C]4 | %2
 [D,F,C]>[D,G,C] [D,A,C]>[D,B,D] [D,CD]>[D,F,D] [D,F,D]>[D,F,D] | [B,,G,]2 [D,F,D]2 [G,D]4 | %4
 [G,,G,]>[G,,G,] [G,,D,]>[G,,D,] [G,,G,]>G,, G,,>G,, | C,2 C,2 [C,C]4 | %6
 [G,D]>[F,D][K:treble] [G,DG]>[A,DF] [B,DG]>[CG] [B,DG]>[CEG] | [DG]2[K:bass] D,2 G,,4 | %8
 [G,B,G]>[G,_B,G] [G,=B,G]>[G,CG] [G,B,G]2 [G,DG]2 | [D,D]>[D,D] [D,D]>[D,D] [D,D]4 | %10
 [D,D]>[D,D] [D,D]>[D,D] [D,D]2 D,2 | G,>G, G,>G, G,4 | %12
 [G,DG]>[G,^CG] [G,DG]>[G,A,G] [G,B,G]2[K:bass] [E,B,]2 | %13
 [D,D]>[K:treble][G,DG] [A,DF]>[B,D=F] [CE]4 | [B,E^G]>[B,EG][K:bass] A,>A, A,>A, A,>A, | %15
 D,2 D,2 G,,4 |] %16

